X:241
T: Schneider-Verschwrung (3-44), S. 131
N: P1016
O: Lothringen
S: PINCK, Louis: Verklingende Weisen, Bd3, Metz 1933]
R: Berufslied]
M: 3/4
L: 1/16
K: A
D4 | D4A4A4 | A2AAA4B4 | A4=G4G4 | =G4G4
G4 | =G8=c4 | =c4c4c4 | =c12 | =c8
c3c | B6B2B4 | A4A4A3B | A8
D4 | D4A4A4 | A4A4B4 | A8=G4 | =G8
G4 | =G8=c4 | =c4c4c4 | B4B4A4 | B8
B4 | =G8G4 | F8E4 | D12 |
=G6A2B2=c2 | e12 | e8
e4 | =c8c4 | B4A4A3B | A8

@@@ Tune index: 7791
